assets/images/user-check.svg

<svg width="21" height="20" viewBox="0 0 21 20" fill="none" xmlns="http://www.w3.org/2000/svg">
<g id="User Check">
<g id="Shape">
<path d="M14.0562 5.55506C14.0562 7.51901 12.4641 9.1111 10.5001 9.1111C8.53618 9.1111 6.94408 7.51901 6.94408 5.55506C6.94408 3.59112 8.53618 1.99902 10.5001 1.99902C12.4641 1.99902 14.0562 3.59112 14.0562 5.55506Z" fill="#8B9C8F"/>
<path d="M10.7701 14.1357C9.77748 15.2386 9.75393 16.8753 10.6445 18.0012H4.72155C3.30591 18.0012 2.49902 17.5567 2.49902 16.2232C2.49902 12.6671 6.49958 10.0001 10.4988 10.0001C12.7564 10.0001 15.0147 10.8501 16.5534 12.2301L15.1638 14.0539L15.0069 13.9127C13.7754 12.8043 11.8785 12.9042 10.7701 14.1357Z" fill="#8B9C8F"/>
<path d="M20.0282 12.6194C20.4675 12.9541 20.5523 13.5816 20.2176 14.0209L15.7146 19.931L12.331 16.8858C11.9205 16.5163 11.8873 15.884 12.2567 15.4735C12.6262 15.063 13.2585 15.0297 13.669 15.3992L15.4392 16.9924L18.6267 12.8088C18.9614 12.3695 19.5889 12.2847 20.0282 12.6194Z" fill="#8B9C8F"/>
</g>
</g>
</svg>

<?xml version="1.0" encoding="utf-8"?>
<svg version="1.1" id="Layer_1" xmlns="http://www.w3.org/2000/svg" xmlns:xlink="http://www.w3.org/1999/xlink" x="0px" y="0px"
	 viewBox="0 0 21 20" style="enable-background:new 0 0 21 20;" xml:space="preserve">
<path d="M14.056,5.555c0,1.964-1.592,3.556-3.556,3.556c-1.964,0-3.556-1.592-3.556-3.556c0-1.964,1.592-3.556,3.556-3.556
	C12.464,1.999,14.056,3.591,14.056,5.555z"/>
<path d="M10.77,14.136c-0.993,1.103-1.016,2.74-0.126,3.865H4.722c-1.416,0-2.223-0.444-2.223-1.778c0-3.556,4.001-6.223,8-6.223
	c2.258,0,4.516,0.85,6.055,2.23l-1.39,1.824l-0.157-0.141C13.775,12.804,11.878,12.904,10.77,14.136z"/>
<path d="M20.028,12.619c0.439,0.335,0.524,0.962,0.189,1.401l-4.503,5.91l-3.384-3.045c-0.411-0.369-0.444-1.002-0.074-1.412
	c0.37-0.411,1.002-0.444,1.412-0.074l1.77,1.593l3.187-4.184C18.961,12.37,19.589,12.285,20.028,12.619z"/>
</svg>
